!!! OTL: Cao^, Yuan/, Zh-, Ge- (Song of Green)
!!! YEC: Copyright 2001, Chia-wei Lee
!! For Voice Only
**kern	**silbe
*clefG2	*LXinhua
*E-:	*ping-ying
*M2/4	*
=9	=9
8e-	Mei^
16e-	Li\
16e-	De
8.e-	Yeh\
(16c	|
=10	=10
8e-)	|
8f	Se\
(8g	Duo-
16f	|
16b-	|
=11	=11
4f	|
q8a-)	|
4a-	|
=12	=12
(8.f	Cheng/
16e-	|
8g	|
16f	|
16e-)	|
=13	=13
[2e-	Jing\
=14	=14
2e-]	|
=15	=15
2r	.
=16	=16
2r	.
=17	=17
8ee-	Cao^
8ee-	Yuan/
(8ee-	Shan\
8cc)	|
=18	=18
8.b-	Zh^
16cc	Lio/
4ee-	Xia\
=19	=19
(8ff	Wo^
16gg	|
16ff	|
8ee-	|
8cc)	De
=20	=20
(8.b-	Qin/
16dd	|
16cc	|
16ee-	|
16cc	|
16b-)	|
=21	=21
(8.g	|
16b-	|
8g	|
16cc	|
16b-)	|
=22	=22
[2b-	Chen-
=23	=23
2b-]	|
*-	*-
